X:114
T:Open The Door for Three
R:slip jig
H:This tune has a long history in Scotland and England:
H:a simple version of first part was published by Playford in 1652.
H:See also #79
D:Martin Nolan: Bright Silver Dark Wood
Z:id:hn-slipjig-114
M:9/8
L:1/8
K:G
G2B BGB AFA | G2B BGB c2A | G2B BGB AFA |1 GB/c/d cAF G2D :|2 GBd cAF GB/c/d ||
|: gdB gdB AGd | gfe def g2d | efg dcB ABc |1 ~B3 cAF G2d :|2 ~B3 cAF G2D || 

